X:172
T:On the dew so pearly - Parsons 1
%%VWML:SBG-1-2-234-0
F:http://www.vwml.org/record/SBG/1/2/234
Z:Original Sibelius transcriptions by M. & S. Graebe
L:1/8
M:3/4
I:linebreak $
K:Bb
V:1 treble nm="P1"
V:2 treble 
L:1/4
V:1
 G A | B2 B d2 d | G2 d2 B c | d2 d f2 f/ f/ | B2 B d2 e | dc B A2 G | A2 G2 B c |$ d2 d f2 f/ f/ | %8
 B2 B d3 d | e2 d/ c/ c2 B | A2 d2 z d | e2 d/ c/ B2 A |$ B2 G2 z A | A2 A/ A/ d2 d/ f/ | %14
 =e2 d/ d/ A2 A | ^c2 c/ d/ f2 =e/ d/ | A2 B/ B/ A2 G |$ d2 d/ d/ B2 B/ B/ | _e2 e d2 d | %19
 c2 B A2 A | G2 d2 z e | d2 c/ c/ B2 A | B2 G2 z x | %23
V:2
 x | x3 | G/G/ B x | x3 | x3 | x3 | x3 |$ x3 | x2 x e/ | d x/4 A/4 A G/ | c G x | d d/B/ f/f/ |$ %12
 x3 | x3 | x3 | x3 | x3 |$ x3 | x3 | x3 | x3 | x3 | x3 | %23
T:On the dew so pearly - proper air to A lovely lass
F:http://www.vwml.org/record/SBG/1/2/234
Z:Original Sibelius transcriptions by M. & S. Graebe
M:4/4
I:linebreak $
K:G
V:1 treble nm="P1"
V:1
 AB | c2 B2 A2 G G | BA GF G2 AB | c2 Bc A2 G2 | A4 G3 | G | G2 d2 d2 d d |$ e2 d2 d3 d | %8
w: To ye|Fields I * * *|milk- * ing _ can All _|in a _ morn- ing|ear- ly|And|there I met with a|smart young man Who|
 e2 d d d2 cB | B4 A2 Bc | d2 c c B2 AB | cB AG A2 Bc |$ d2 c c B2 Bc | d2 e e d2 Bc | %14
w: * * * love me _|dear- ly I _|made him a curt- sey he|made _ me a bow He _|kissed me & prom- ised to|marry me I vow I _|
 d2 e2 d2 AB | cB AG A2 A B | c2 B2 A2 G2 | A4 G2 x2 | %18
w: wish that fel- low was||||
T:On the dew so pearly - Beggars Opera
F:http://www.vwml.org/record/SBG/1/2/234
Z:Original Sibelius transcriptions by M. & S. Graebe
M:4/4
I:linebreak $
K:D
V:1 treble nm="P1"
V:1
 F/G/ | A A A A | A2 A G/A/ | B A G A | B2 B c/d/ | c A A A |$ A2 A A | G E E F | G3 A/G/ | %9
 F D D E | F G A G/F/ |$ E D C D | E3 F/G/ | F D D E | F G A G/F/ | B A ^G2 | A3 x | %17
T:On the dew so pearly - Mus Misc A lovely lass &c
F:http://www.vwml.org/record/SBG/1/2/234
Z:Original Sibelius transcriptions by M. & S. Graebe
M:4/4
I:linebreak $
K:C
V:1 treble nm="P1"
V:1
 d/e/ | f e d c | e/d/c/B/ c d/e/ | f e/f/ d c | d2 c | c | c g g g | a g g g |$ a g g g/e/ | %9
 e2 d e/f/ | g2 c c/e/ | d/c/d/e/ c d/e/ | f e d c | d2 c x | %14
T:On the dew so pearly - Engraved copperplate A lovely lass &c
F:http://www.vwml.org/record/SBG/1/2/234
Z:Original Sibelius transcriptions by M. & S. Graebe
M:4/4
I:linebreak $
K:G
V:1 treble nm="P1"
V:1
 A/B/ | c B A G/ A/ | A F G A/ B/ | c B/ B/ A G | F- G/A/ G | G | G d d d | e d d d |$ e d d c/B/ | %9
 B2 A B/ c/ | d2 G G/ G/ | A/G/ A/B/ G A/ B/ | c B A G | F- G/A/ G2 | %14
T:On the dew so pearly - Duncombe
F:http://www.vwml.org/record/SBG/1/2/234
Z:Original Sibelius transcriptions by M. & S. Graebe
M:6/8
I:linebreak $
K:D
V:1 treble nm="P1"
V:1
 D/D/ | D2 d dcd | c2 B A2 A/A/ | GFG E2 A | D3 d2 D | D2 d dcd |$ c2 B A2 F | GFG E2 A | D3 d2 A | %9
 def dcd | e=de A2 A | def dcd |$ e^de A2 A | DDF A2 A | BA^G A2 A/A/ | Bcd fed | c3 d2 x | %17
T:On the dew so pearly - Parsons 2 revised tune
F:http://www.vwml.org/record/SBG/1/2/234
Z:Original Sibelius transcriptions by M. & S. Graebe
M:6/8
I:linebreak $
K:Bb
V:1 treble nm="P1"
V:1
 GA | B2 B d2 d/ d/ | G G d3 e | dc B A2 G | A2 G2 | Bc | d2 d f2 f/ f/ | B B d3 e |$ %8
 d2 c/B/ A2 G | c2 G2 | B | d2 d/ d/ f2 f/ f/ | B2 B/ B/ d2 e | d2 c/B/ A2 A/ A/ | d2 d G2 |$ B | %16
 e2 d/c/ B2 A/G/ | A2 A D2 | d | c2 B A2 A | G2 d2 z e | d2 c/B/ A2 G | B2 G2 z x | %23
T:On the dew so pearly - Fone
F:http://www.vwml.org/record/SBG/1/2/234
Z:Original Sibelius transcriptions by M. & S. Graebe
M:4/4
I:linebreak $
K:Ab
V:1 treble nm="P1"
V:1
 c/>B/ | A F F E | A A A B | c f c A/G/ | F E2 c/>B/ | A F F E |$ A A A B | c f c/B/A/G/ | %8
 F A c/>d/ | e e/>e/ e c |$ f e/>_d/ e c | f e/d/ d/c/B/A/ | B/c/ B/A/ F c/>B/ | A F F"_&c." E | %14




